X:1
T:The Handsome Young Maidens
R:jig
M:6/8
L:1/8
K:A
|:aed cdB|Ace aga|bee dee|Bee bag|
|aed cdB|Ace aga|bee deB|1 cAG A2g:|2 cAG A2B|]
|:c2A EAc|d2f fed|ede fed|Bff fed|
|c2A EAc|d2f fed|1 ede fed|cdB A2B:|2 ede fef|gfg bag|]